flags/es-ct.svg

<svg xmlns="http://www.w3.org/2000/svg" width="512" height="512" fill="none"><g clip-path="url(#a)"><path fill="var(--flag-palette-yellow, #ffda44)" d="M0 0h512v512H0z"/><path fill="var(--flag-palette-bright-red, #d80027)" d="M0 57h512v57H0zm0 114h512v57H0zm0 114h512v56H0zm0 113h512v57H0z"/></g><defs><clipPath id="a"><path fill="#fff" d="M0 0h512v512H0z"/></clipPath></defs></svg>

<svg width="512" height="512" viewBox="0 0 512 512" fill="none" xmlns="http://www.w3.org/2000/svg">
<rect width="512" height="512" fill="var(--flag-palette-yellow, #ffda44)"/>
<path d="M0 57H512V114H0V57ZM0 171H512V228H0V171ZM0 285H512V341H0V285ZM0 398H512V455H0V398Z" fill="var(--flag-palette-bright-red, #d80027)"/>
</svg>
